X: 1
T: Miss Ann Monro's Reel
C: Abraham Mackintosh
R: jig
S: handout for Mari Black online session 2022-2-6 (www.mariblack.com)
Z: 2022 John Chambers <jc:trillian.mit.edu>
M: 6/8
L: 1/8
K: Bm
"^A"|: F |\
"Bm"B3 f3  | "F#"edc "Bm"dcB | "A"Acd edc |aed cBA ||\
"Bm"B3 fgf | "F#"edc "Bm"dcB | "/F#"efd "F#"edc | "Bm"dBB B2 :|
"^B"[| c |\
"Bm"dfB dbB | dcB fdB | "A"ceA caA | cBA "F#"edc ||\
"Bm"dfB dbB | dcB fdB | "/F#"efd "F#"edc | "Bm"dBB B2c ||
"Bm"dfB dbB | dfB dbB | "A"ceA caA | ceA caA ||\
"Bm"BdB "F#"cec | "Bm"dfd "F#"ege | "Bm"fgf "F#"edc | "Bm"dBB B2 |]
